svg/database.svg

<svg xmlns="http://www.w3.org/2000/svg" viewBox="0 0 64 64" enable-background="new 0 0 64 64"><style type="text/css">.st0{fill:#333333;}</style><title>database</title><desc>Created with Sketch.</desc><path class="st0" d="M64 16v-8c0-4.4-3.6-8-8-8h-48c-4.4 0-8 3.6-8 8v8c0 2.4 1.1 4.5 2.7 6-1.6 1.5-2.7 3.6-2.7 6v8c0 2.4 1.1 4.5 2.7 6-1.6 1.5-2.7 3.6-2.7 6v8c0 4.4 3.6 8 8 8h48c4.4 0 8-3.6 8-8v-8c0-2.4-1.1-4.5-2.7-6 1.7-1.5 2.7-3.6 2.7-6v-8c0-2.4-1.1-4.5-2.7-6 1.6-1.5 2.7-3.6 2.7-6zm-4 32v8c0 2.2-1.8 4-4 4h-48c-2.2 0-4-1.8-4-4v-8c0-2.2 1.8-4 4-4h48c2.2 0 4 1.8 4 4zm0-20v8c0 2.2-1.8 4-4 4h-48c-2.2 0-4-1.8-4-4v-8c0-2.2 1.8-4 4-4h48c2.2 0 4 1.8 4 4zm-52-8c-2.2 0-4-1.8-4-4v-8c0-2.2 1.8-4 4-4h48c2.2 0 4 1.8 4 4v8c0 2.2-1.8 4-4 4h-48z"/><circle class="st0" cx="47" cy="32" r="2"/><circle class="st0" cx="54" cy="52" r="2"/><circle class="st0" cx="47" cy="52" r="2"/><circle class="st0" cx="12" cy="52" r="4"/><circle class="st0" cx="40" cy="52" r="2"/><circle class="st0" cx="54" cy="32" r="2"/><circle class="st0" cx="47" cy="12" r="2"/><circle class="st0" cx="54" cy="12" r="2"/><circle class="st0" cx="40" cy="12" r="2"/><circle class="st0" cx="12" cy="12" r="4"/><circle class="st0" cx="40" cy="32" r="2"/><circle class="st0" cx="12" cy="32" r="4"/></svg>

<?xml version="1.0" encoding="utf-8"?>
<!-- Generator: Adobe Illustrator 21.0.0, SVG Export Plug-In . SVG Version: 6.00 Build 0)  -->
<svg version="1.1" id="Layer_1" xmlns="http://www.w3.org/2000/svg" xmlns:xlink="http://www.w3.org/1999/xlink" x="0px" y="0px"
	 viewBox="0 0 64 64" style="enable-background:new 0 0 64 64;" xml:space="preserve">
<style type="text/css">
	.st0{fill:#333333;}
</style>
<title>database</title>
<desc>Created with Sketch.</desc>
<g>
	<path class="st0" d="M64,16V8c0-4.4-3.6-8-8-8H8C3.6,0,0,3.6,0,8v8c0,2.4,1.1,4.5,2.7,6C1.1,23.5,0,25.6,0,28v8
		c0,2.4,1.1,4.5,2.7,6C1.1,43.5,0,45.6,0,48v8c0,4.4,3.6,8,8,8h48c4.4,0,8-3.6,8-8v-8c0-2.4-1.1-4.5-2.7-6c1.7-1.5,2.7-3.6,2.7-6v-8
		c0-2.4-1.1-4.5-2.7-6C62.9,20.5,64,18.4,64,16z M60,48v8c0,2.2-1.8,4-4,4H8c-2.2,0-4-1.8-4-4v-8c0-2.2,1.8-4,4-4h48
		C58.2,44,60,45.8,60,48z M60,28v8c0,2.2-1.8,4-4,4H8c-2.2,0-4-1.8-4-4v-8c0-2.2,1.8-4,4-4h48C58.2,24,60,25.8,60,28z M8,20
		c-2.2,0-4-1.8-4-4V8c0-2.2,1.8-4,4-4h48c2.2,0,4,1.8,4,4v8c0,2.2-1.8,4-4,4H8z"/>
	<circle class="st0" cx="47" cy="32" r="2"/>
	<circle class="st0" cx="54" cy="52" r="2"/>
	<circle class="st0" cx="47" cy="52" r="2"/>
	<circle class="st0" cx="12" cy="52" r="4"/>
	<circle class="st0" cx="40" cy="52" r="2"/>
	<circle class="st0" cx="54" cy="32" r="2"/>
	<circle class="st0" cx="47" cy="12" r="2"/>
	<circle class="st0" cx="54" cy="12" r="2"/>
	<circle class="st0" cx="40" cy="12" r="2"/>
	<circle class="st0" cx="12" cy="12" r="4"/>
	<circle class="st0" cx="40" cy="32" r="2"/>
	<circle class="st0" cx="12" cy="32" r="4"/>
</g>
</svg>
